app/assets/icons/polaris/PrintMajor.svg

<svg viewBox="0 0 20 20" xmlns="http://www.w3.org/2000/svg"><path fill-rule="evenodd" d="M4 2.5a1.5 1.5 0 0 1 1.5-1.5h9a1.5 1.5 0 0 1 1.5 1.5v2.5h1.5a1.5 1.5 0 0 1 1.5 1.5v6a1.5 1.5 0 0 1-1.5 1.5h-1.5v4a1 1 0 0 1-1 1h-10a1 1 0 0 1-1-1v-4h-1.5a1.5 1.5 0 0 1-1.5-1.5v-6a1.5 1.5 0 0 1 1.5-1.5h1.5v-2.5Zm10 14.5v-5h-8v5h8Zm3-8a1 1 0 1 1-2 0 1 1 0 0 1 2 0Zm-3-6h-8v2h8v-2Z"/></svg>

<svg viewBox="0 0 20 20" xmlns="http://www.w3.org/2000/svg"><path fill-rule="evenodd" d="M4 2.5A1.5 1.5 0 0 1 5.5 1h9A1.5 1.5 0 0 1 16 2.5V5h1.5A1.5 1.5 0 0 1 19 6.5v6a1.5 1.5 0 0 1-1.5 1.5H16v4a1 1 0 0 1-1 1H5a1 1 0 0 1-1-1v-4H2.5A1.5 1.5 0 0 1 1 12.5v-6A1.5 1.5 0 0 1 2.5 5H4V2.5zM14 17v-5H6v5h8zm3-8a1 1 0 1 1-2 0 1 1 0 0 1 2 0zm-3-6H6v2h8V3z"/></svg>
